SVG_Azure_Grouped/Workload/Proxy Server.svg

<?xml version="1.0" encoding="UTF-8" standalone="no"?>
<!-- Generated by Microsoft Visio, SVG Export Proxy Server.svg Page-1 -->

<svg
   xmlns:dc="http://purl.org/dc/elements/1.1/"
   xmlns:cc="http://creativecommons.org/ns#"
   xmlns:rdf="http://www.w3.org/1999/02/22-rdf-syntax-ns#"
   xmlns:svg="http://www.w3.org/2000/svg"
   xmlns="http://www.w3.org/2000/svg"
   xmlns:sodipodi="http://sodipodi.sourceforge.net/DTD/sodipodi-0.dtd"
   xmlns:inkscape="http://www.inkscape.org/namespaces/inkscape"
   width="0.62988508in"
   height="0.78744334in"
   viewBox="0 0 45.351663 56.695979"
   xml:space="preserve"
   class="st6"
   version="1.1"
   id="svg105"
   sodipodi:docname="Proxy Server.svg"
   style="font-size:12px;overflow:visible;color-interpolation-filters:sRGB;fill:none;fill-rule:evenodd;stroke-linecap:square;stroke-miterlimit:3"
   inkscape:version="0.92.5 (2060ec1f9f, 2020-04-08)"><metadata
   id="metadata109"><rdf:RDF><cc:Work
       rdf:about=""><dc:format>image/svg+xml</dc:format><dc:type
         rdf:resource="http://purl.org/dc/dcmitype/StillImage" /></cc:Work></rdf:RDF></metadata><sodipodi:namedview
   pagecolor="#ffffff"
   bordercolor="#666666"
   borderopacity="1"
   objecttolerance="10"
   gridtolerance="10"
   guidetolerance="10"
   inkscape:pageopacity="0"
   inkscape:pageshadow="2"
   inkscape:window-width="640"
   inkscape:window-height="480"
   id="namedview107"
   showgrid="false"
   inkscape:zoom="1.1720469"
   inkscape:cx="40.141257"
   inkscape:cy="22.861172"
   inkscape:window-x="0"
   inkscape:window-y="0"
   inkscape:window-maximized="0"
   inkscape:current-layer="svg105" />
	<style
   type="text/css"
   id="style2">
	<![CDATA[
		.st1 {fill:url(#grad0-11);stroke:none;stroke-linecap:butt;stroke-width:35.9597}
		.st2 {fill:#003067;stroke:none;stroke-linecap:butt;stroke-width:35.9597}
		.st3 {fill:#50e6ff;stroke:none;stroke-linecap:butt;stroke-width:35.9597}
		.st4 {fill:url(#grad0-29);stroke:none;stroke-linecap:butt;stroke-width:34}
		.st5 {fill:#ffffff;stroke:none;stroke-linecap:butt;stroke-width:61.2001}
		.st6 {fill:none;fill-rule:evenodd;font-size:12px;overflow:visible;stroke-linecap:square;stroke-miterlimit:3}
	]]>
	</style>

	<defs
   id="Patterns_And_Gradients">
		<linearGradient
   id="grad0-11"
   x1="-0.00023377414"
   y1="72.541232"
   x2="40.57368"
   y2="72.541232"
   gradientTransform="scale(0.74900772,1.3350997)"
   gradientUnits="userSpaceOnUse">
			<stop
   offset="0"
   stop-color="#949494"
   stop-opacity="1"
   id="stop4" />
			<stop
   offset="0.53"
   stop-color="#a2a2a2"
   stop-opacity="1"
   id="stop6" />
			<stop
   offset="1"
   stop-color="#b3b3b3"
   stop-opacity="1"
   id="stop8" />
		</linearGradient>
		<linearGradient
   id="grad0-29"
   x1="0"
   y1="115.4322"
   x2="31.281912"
   y2="115.4322"
   gradientTransform="scale(0.97148794,1.0293489)"
   gradientUnits="userSpaceOnUse">
			<stop
   offset="0"
   stop-color="#5e9624"
   stop-opacity="1"
   id="stop11" />
			<stop
   offset="0.18"
   stop-color="#629c25"
   stop-opacity="1"
   id="stop13" />
			<stop
   offset="0.44"
   stop-color="#6dae2a"
   stop-opacity="1"
   id="stop15" />
			<stop
   offset="0.73"
   stop-color="#7fcb30"
   stop-opacity="1"
   id="stop17" />
			<stop
   offset="0.82"
   stop-color="#86d633"
   stop-opacity="1"
   id="stop19" />
		</linearGradient>
	</defs>
	<g
   id="g103"
   transform="translate(-42.374703,-35.958919)">
		<title
   id="title23">Page-1</title>
		<g
   id="group15079-1"
   transform="translate(42.3747,-58.3651)">
			<title
   id="title25">Proxy Server.15079</title>
			<g
   id="group15080-2">
				<title
   id="title27">Page-1</title>
				<g
   id="group15081-3">
					<title
   id="title29">Sheet.15081</title>
					<g
   id="group15082-4"
   transform="translate(0,-2.52576)">
						<title
   id="title31">Sheet.15082</title>
						<g
   id="group15083-5">
							<title
   id="title33">Icon-databases-136.149</title>
							<g
   id="group15084-6">
								<title
   id="title35">path4-5</title>
								<g
   id="group15085-7">
									<title
   id="title37">Sheet.15085</title>
									<g
   id="shape15086-8">
										<title
   id="title39">Sheet.15086</title>
										<path
   d="m 30.39,149.17 a 1.87924,1.79501 90 0 1 -1.76,1.85 H 1.76 A 1.84683,1.76406 90 0 1 0,149.17 V 98.69 a 1.81443,1.73311 90 0 1 1.76,-1.84 h 26.87 a 1.84683,1.76406 90 0 1 1.76,1.84 z"
   class="st1"
   id="path41"
   inkscape:connector-curvature="0"
   style="fill:url(#grad0-11);stroke:none;stroke-width:35.95970154;stroke-linecap:butt" />
									</g>
								</g>
							</g>
							<g
   id="group15087-12"
   transform="translate(4.45657,-31.7201)">
								<title
   id="title46">path6-7</title>
								<g
   id="group15088-13">
									<title
   id="title48">Sheet.15088</title>
									<g
   id="shape15089-14">
										<title
   id="title50">Sheet.15089</title>
										<path
   d="m 0,147.56 a 3.46687,3.31148 90 0 1 3.28,-3.44 h 15.16 a 3.46687,3.31148 90 0 1 3.41,3.44 3.46687,3.31148 90 0 1 -3.41,3.46 H 3.28 A 3.46687,3.31148 90 0 1 0,147.56 Z m 0,-10.24 a 3.46687,3.31148 90 0 1 3.28,-3.47 h 15.16 a 3.46687,3.31148 90 0 1 3.41,3.47 3.46687,3.31148 90 0 1 -3.41,3.44 H 3.28 A 3.46687,3.31148 90 0 1 0,137.32 Z"
   class="st2"
   id="path52"
   inkscape:connector-curvature="0"
   style="fill:#003067;stroke:none;stroke-width:35.95970154;stroke-linecap:butt" />
									</g>
								</g>
							</g>
							<g
   id="group15090-16"
   transform="translate(5.6945,-43.0912)">
								<title
   id="title57">circle8-5</title>
								<g
   id="group15091-17">
									<title
   id="title59">Sheet.15091</title>
									<g
   id="shape15092-18">
										<title
   id="title61">Sheet.15092</title>
										<ellipse
   cx="2.2282801"
   cy="148.685"
   rx="2.2282801"
   ry="2.33285"
   class="st3"
   id="ellipse63"
   style="fill:#50e6ff;stroke:none;stroke-width:35.95970154;stroke-linecap:butt" />
									</g>
								</g>
							</g>
							<g
   id="group15093-20"
   transform="translate(5.6945,-32.8527)">
								<title
   id="title68">circle10-2</title>
								<g
   id="group15094-21">
									<title
   id="title70">Sheet.15094</title>
									<g
   id="shape15095-22">
										<title
   id="title72">Sheet.15095</title>
										<ellipse
   cx="2.2282801"
   cy="148.685"
   rx="2.2282801"
   ry="2.33285"
   class="st3"
   id="ellipse74"
   style="fill:#50e6ff;stroke:none;stroke-width:35.95970154;stroke-linecap:butt" />
									</g>
								</g>
							</g>
						</g>
					</g>
					<g
   id="group15096-24"
   transform="translate(14.9616)">
						<title
   id="title81">Sheet.15096</title>
						<g
   id="group15097-25">
							<title
   id="title83">Sheet.15097</title>
							<g
   id="shape15098-26">
								<title
   id="title85">Sheet.15098</title>
								<path
   d="m 15.16,151.02 a 3.02397,2.8484 90 0 1 -2,-0.91 L 0.84,137.04 A 3.0287,2.85285 90 0 1 0,134.92 3.02397,2.8484 90 0 1 0.85,132.8 l 12.31,-13.08 c 0.55,-0.58 1.28,-0.9 2.01,-0.9 0.72,0 1.46,0.32 2,0.9 l 12.37,13.13 c 0.55,0.59 0.85,1.29 0.85,2.13 a 3.02397,2.8484 90 0 1 -0.85,2.13 l -12.37,13 a 3.02397,2.8484 90 0 1 -2.01,0.91 z"
   class="st4"
   id="path87"
   inkscape:connector-curvature="0"
   style="fill:url(#grad0-29);stroke:none;stroke-width:34;stroke-linecap:butt" />
							</g>
						</g>
						<g
   id="group15099-30"
   transform="translate(3.86376,-2.83497)">
							<title
   id="title91">Sheet.15099</title>
							<g
   id="shape15100-31">
								<title
   id="title93">Sheet.15100</title>
								<path
   d="m 11.28,124.48 -4.01,4.26 h 2.86 v 6.18 h 2.37 v -6.18 h 2.79 z m 0,26.54 4.01,-4.25 h -2.85 v -6.05 h -2.37 v 6.05 h -2.8 z m 1.88,-13.26 4.01,4.24 v -2.96 h 5.39 v -2.57 h -5.39 v -2.97 z m -3.7,0 -4,-4.26 v 2.97 H 0 v 2.57 H 5.46 V 142 Z"
   class="st5"
   id="path95"
   inkscape:connector-curvature="0"
   style="fill:#ffffff;stroke:none;stroke-width:61.20009995;stroke-linecap:butt" />
							</g>
						</g>
					</g>
				</g>
			</g>
		</g>
	</g>
</svg>

<?xml version="1.0" encoding="UTF-8" standalone="no"?>
<!DOCTYPE svg PUBLIC "-//W3C//DTD SVG 1.1//EN" "http://www.w3.org/Graphics/SVG/1.1/DTD/svg11.dtd">
<!-- Generated by Microsoft Visio, SVG Export Proxy Server.svg Page-1 -->
<svg xmlns="http://www.w3.org/2000/svg" xmlns:xlink="http://www.w3.org/1999/xlink" xmlns:ev="http://www.w3.org/2001/xml-events"
		width="2.01335in" height="2.09747in" viewBox="0 0 144.961 151.018" xml:space="preserve" color-interpolation-filters="sRGB"
		class="st6">
	<style type="text/css">
	<![CDATA[
		.st1 {fill:url(#grad0-11);stroke:none;stroke-linecap:butt;stroke-width:35.9597}
		.st2 {fill:#003067;stroke:none;stroke-linecap:butt;stroke-width:35.9597}
		.st3 {fill:#50e6ff;stroke:none;stroke-linecap:butt;stroke-width:35.9597}
		.st4 {fill:url(#grad0-29);stroke:none;stroke-linecap:butt;stroke-width:34}
		.st5 {fill:#ffffff;stroke:none;stroke-linecap:butt;stroke-width:61.2001}
		.st6 {fill:none;fill-rule:evenodd;font-size:12px;overflow:visible;stroke-linecap:square;stroke-miterlimit:3}
	]]>
	</style>

	<defs id="Patterns_And_Gradients">
		<linearGradient id="grad0-11" x1="0" y1="0" x2="1" y2="0" gradientTransform="rotate(-90 0.5 0.5)">
			<stop offset="0" stop-color="#949494" stop-opacity="1"/>
			<stop offset="0.53" stop-color="#a2a2a2" stop-opacity="1"/>
			<stop offset="1" stop-color="#b3b3b3" stop-opacity="1"/>
		</linearGradient>
		<linearGradient id="grad0-29" x1="0" y1="0" x2="1" y2="0" gradientTransform="rotate(-90 0.5 0.5)">
			<stop offset="0" stop-color="#5e9624" stop-opacity="1"/>
			<stop offset="0.18" stop-color="#629c25" stop-opacity="1"/>
			<stop offset="0.44" stop-color="#6dae2a" stop-opacity="1"/>
			<stop offset="0.73" stop-color="#7fcb30" stop-opacity="1"/>
			<stop offset="0.82" stop-color="#86d633" stop-opacity="1"/>
		</linearGradient>
	</defs>
	<g>
		<title>Page-1</title>
		<g id="group14696-1" transform="translate(42.3747,-58.3651)">
			<title>Proxy Server.14696</title>
			<g id="group14697-2">
				<title>Page-1</title>
				<g id="group14698-3">
					<title>Sheet.14698</title>
					<g id="group14699-4" transform="translate(-2.29816E-13,-2.52576)">
						<title>Sheet.14699</title>
						<g id="group14700-5">
							<title>Icon-databases-136.149</title>
							<g id="group14701-6">
								<title>path4-5</title>
								<g id="group14702-7">
									<title>Sheet.14702</title>
									<g id="shape14703-8">
										<title>Sheet.14703</title>
										<path d="M30.39 149.17 A1.87924 1.79501 90 0 1 28.63 151.02 L1.76 151.02 A1.84683 1.76406
													 90 0 1 -0 149.17 L0 98.69 A1.81443 1.73311 90 0 1 1.76 96.85 L28.63 96.85 A1.84683
													 1.76406 90 0 1 30.39 98.69 L30.39 149.17 Z" class="st1"/>
									</g>
								</g>
							</g>
							<g id="group14704-12" transform="translate(4.45657,-31.7201)">
								<title>path6-7</title>
								<g id="group14705-13">
									<title>Sheet.14705</title>
									<g id="shape14706-14">
										<title>Sheet.14706</title>
										<path d="M-0 147.56 A3.46687 3.31148 90 0 1 3.28 144.12 L18.44 144.12 A3.46687 3.31148 90
													 0 1 21.85 147.56 A3.46687 3.31148 90 0 1 18.44 151.02 L3.28 151.02 A3.46687
													 3.31148 90 0 1 -0 147.56 ZM0 137.32 A3.46687 3.31148 90 0 1 3.28 133.85 L18.44
													 133.85 A3.46687 3.31148 90 0 1 21.85 137.32 A3.46687 3.31148 90 0 1 18.44 140.76
													 L3.28 140.76 A3.46687 3.31148 90 0 1 0 137.32 Z" class="st2"/>
									</g>
								</g>
							</g>
							<g id="group14707-16" transform="translate(5.6945,-43.0912)">
								<title>circle8-5</title>
								<g id="group14708-17">
									<title>Sheet.14708</title>
									<g id="shape14709-18">
										<title>Sheet.14709</title>
										<ellipse cx="2.22828" cy="148.685" rx="2.22828" ry="2.33285" class="st3"/>
									</g>
								</g>
							</g>
							<g id="group14710-20" transform="translate(5.6945,-32.8527)">
								<title>circle10-2</title>
								<g id="group14711-21">
									<title>Sheet.14711</title>
									<g id="shape14712-22">
										<title>Sheet.14712</title>
										<ellipse cx="2.22828" cy="148.685" rx="2.22828" ry="2.33285" class="st3"/>
									</g>
								</g>
							</g>
						</g>
					</g>
					<g id="group14713-24" transform="translate(14.9616,2.84217E-13)">
						<title>Sheet.14713</title>
						<g id="group14714-25">
							<title>Sheet.14714</title>
							<g id="shape14715-26">
								<title>Sheet.14715</title>
								<path d="M15.16 151.02 A3.02397 2.8484 90 0 1 13.16 150.11 L0.84 137.04 A3.0287 2.85285 90 0 1 0
											 134.92 A3.02397 2.8484 90 0 1 0.85 132.8 L13.16 119.72 C13.71 119.14 14.44 118.82 15.17
											 118.82 C15.89 118.82 16.63 119.14 17.17 119.72 L29.54 132.85 C30.09 133.44 30.39 134.14
											 30.39 134.98 A3.02397 2.8484 90 0 1 29.54 137.11 L17.17 150.11 A3.02397 2.8484 90 0
											 1 15.16 151.02 Z" class="st4"/>
							</g>
						</g>
						<g id="group14716-30" transform="translate(3.86376,-2.83497)">
							<title>Sheet.14716</title>
							<g id="shape14717-31">
								<title>Sheet.14717</title>
								<path d="M11.28 124.48 L7.27 128.74 L10.13 128.74 L10.13 134.92 L12.5 134.92 L12.5 128.74 L15.29
											 128.74 L11.28 124.48 ZM11.28 151.02 L15.29 146.77 L12.44 146.77 L12.44 140.72 L10.07
											 140.72 L10.07 146.77 L7.27 146.77 L11.28 151.02 ZM13.16 137.76 L17.17 142 L17.17 139.04
											 L22.56 139.04 L22.56 136.47 L17.17 136.47 L17.17 133.5 L13.16 137.76 ZM9.46 137.76 L5.46
											 133.5 L5.46 136.47 L0 136.47 L0 139.04 L5.46 139.04 L5.46 142 L9.46 137.76 Z"
										class="st5"/>
							</g>
						</g>
					</g>
				</g>
			</g>
		</g>
	</g>
</svg>
